X: 12964
T: Fiddler, The
R: reel
M: 4/4
K: Amajor
|:E|A2cA FAEF|ABce fede|fa (3aga faec|AecA BAFG|
A2 (3cBA FAEF|ABce fafe|fa (3aga faec|BABc A3:|
|:e|ac'ec' aec'a|gfec dBGF|Ac (3cBc fcef|gefg egfe|
ac'ec' aec'a|gfec dBGF|Ac (3cBc fcec|dBGB A3:|

